X:161
T: Der grausame Bruder
N: Q1068F
O: Osteuropa, Tschechoslowakei, Sudetenland, Deutsch - Proben, Gaidel
N: Melodievergleich zu Q0068A, anderes Lied "Der Gluecksjaeger" .
R: ???
M: 2/4
L: 1/16
K: G
D4 | G4B4 | A6d2 | c2B2A2
G2 | G2B2A2G2 | F2E2D2
DD | G2B2A2G2 | B4c2A2 | G4

@@@ Tune index: 1037
